X:1
T:James Gibb editions
T:Sperent in te - Witt
T:#
%%score [ 1 2 3 4 ]
L:1/8
Q:1/4=78
M:3/4
K:C
V:1 treble nm="Soprano" snm="S"
V:2 treble nm="Alto" snm="A"
V:3 treble-8 nm="Tenor" snm="T"
V:4 bass nm="Bass" snm="B"
V:1
!mf!"^Franz Xaver Witt\n(1834-1888)" A2 A2 B2 |!<(! (c3 d e2-!<)! | %2
w: Spe- rent in|te * *|
"^," e2 (d)c"^Sperent in te omnes" d2 |!>(! c2) B2!>)!"^," BB |!f! c4 d2 | e3 f (g2- | g2 fe f2 | %7
w: * o\- * *|* mnes, qui no\-|ve- runt|no- men tu\-||
 e2"^," d2 (c2- | c2 BA B2) | c4 z2 |"^dolce" B3 B c2 | d2 c2 d2 | e2 e2 c2 | c4 c2 |"^," c6 | %15
w: * um, Do\-|* * * mi-|ne:|quo- ni- am|non de- re-|lin- quis quae-|ren- tes|te:|
!f! f3 e d2 |!ff! e3 d c2 | c4"^dim." c2 |"^," B4 B2 | c3 c cc | d2 f2 e2) | c4 z2 | z6 | z6 | z6 | %25
w: psal- li- te,|psal- li- te|Do- mi-|no, qui|ha- bi- tat in|Si\- * *|on:||||
 z6 |!f! d3 d d2 | f3 e"^," d2 |!ff! e3 d c2 | c4"^dim." c2 |"^," B4 B2 | c3 c cc | (c2 f3 e) | %33
w: |psal- li- te,|psal- li- te,|psal- li- te|Do- mi-|no, qui|ha- bi- tat in|Si\- * *|
 f4 z2 |!mf! A3 A A2 | d2 d2 c2 | B2 B2 B2 | c3 B AG | F4 E2 | E6 | z2 z2!f! A2 | d3 c BA | %42
w: on:|quo- ni- am|non est ob-|li- tus o-|ra- ti- o- nes|pau- pe-|rum,|o-|ra- ti- o- nes|
 (^G2 A4- |"^dim." A2 ^G^F) G2 | !fermata!A6 |] %45
w: pau\- *|* * * pe-|rum.|
V:2
!mf! E2 E2 E2 |!<(! (E2 c2"^," B2)!<)! | A6- |!>(! A2 ^G2!>)!"^," GG |!f! (A2 c2) B2 | c4 G2 | %6
w: Spe- rent in|te * *|o\-|* mnes, qui no\-|ve\- * runt|no- men|
 (c6- | c2 BA G2) |"^," G2 G3 G | E4 z2 |"^dolce" G3 G G2 | G4 GG | G2 G2 A2 | G4 G2 |"^," A6 | %15
w: tu\-||um, Do- mi-|ne:|quo- ni- am|non de- re-|lin- quis quae-|ren- tes|te:|
!f! A2 G2 G2 |!ff! G3 G G2 | (A2 F2)"^dim." ^F2 |"^," G4 G2 | G3 G AA | (A4 ^G2) | A4 z2 | %22
w: psal- li- te,|psal- li- te|Do\- * mi-|no, qui|ha- bi- tat in|Si\- *|on:|
!mf! ^G3 G A2 |!<(! B2 A2 B2!<)! |!>(! ^B2 c2 A2!>)! |"^dim." A4 A2 | A6 |!f! A2 G2"^," G2 | %28
w: quo- ni- am|non de- re-|lin- quis quae-|ren- tes|te;|psal- li- te,|
!ff! G3 G G2 | (A2 F2)"^dim." ^F2 |"^," G4 G2 | G3 G AA | (A4 G2) | A4 z2 |!mf! F3 F F2 | %35
w: psal- li- te,|Do\- * mi-|no, qui|ha- bi- tat in|Si\- *|on:|quo- ni- am|
 D2 F2 F2 | E2 E2 E2 | EE E2 C2 | (DC B,2) B,2 |"^," ^C4!f! A2 | A3 G FE | (F2 DE F2 | E6- | %43
w: non est ob-|li- tus o-|ra- ti- o- nes|pau\- * * pe-|rum, o-|ra- ti- o- nes|pau\- * * *||
"^dim." E4) E2 | !fermata!E6 |] %45
w: * pe-|rum.|
V:3
!mf! c2 c2 B2 |!<(! (A2"^," e4)!<)! |!>(! A6!>)! | A2"^," B2 e2 |!f! e4 g2 | g4 d2 | (c6- | %7
w: Spe- rent in|te *|o-|mnes, qui no-|ve- runt|no- men|tu\-|
 c2 d2)"^," e2 | d4 d2 | c4 z2 |"^dolce" G3 G A2 | B2 A2 B2 | c2 c2 f2 | (f2 ed) e2 |"^," f6 | %15
w: * * um,|Do- mi-|ne:|quo- ni- am|non de- re-|lin- quis quae-|ren\- * * tes|te:|
!f! d3 c B2 |!ff! c3 c c2 | c4"^dim." c2 |"^," d4 d2 | e3 d cB | (A2 dc B2) | A4 z2 |!mf! B3 B B2 | %23
w: psal- li- te,|psal- li- te|Do- mi-|no, qui|ha- bi- tat in|Si\- * * *|on:|quo- ni- am|
!<(! e4 ee!<)! |!>(! e2 e2 f2!>)! |"^dim." e4 e2 | f6 |!f! d3 c"^," B2 |!ff! c3 B c2 | %29
w: non de- re|lin- quis quae-|ren- tes|te;|psal- li- te,|psal- li- te,|
 c4"^dim." c2 |"^," d4 d2 | e3 d cB | c6 | c4 z2 |!mf! c3 c A2 | A2 A2 A2 | A2 ^G2 G2 | A3 B cG | %38
w: Do- mi-|no, qui|ha- bi- tat in|Si-|on:|quo- ni- am|non est ob-|li- tus o-|ra- ti- o- nes|
 A4 ^G2 | A6- |"^," A4!f! A2 | f3 e dc | (B2 c4 |"^dim." B4) B2 | !fermata![A^c]6 |] %45
w: pau- pe-|rum,|* o-|ra- ti- o- nes|pau\- *|* pe-|rum.|
V:4
!mf! A,2 A,2 ^G,2 |!<(! (A,4"^," !courtesy!=G,2)!<)! | (F,6 |!>(! E,2) E,2!>)!"^," E,E, | %4
w: Spe- rent in|te *|o\-|* nes, qui no\-|
!f! A,4 !courtesy!=G,2 | C4 B,2 | (A,6 | G,4"^," E,2 | G,4 G,2 | C,4 z2 | z6 | z6 | z6 | z6 | %14
w: ve- runt|no- men|tu\-|* um,|Do- mi-|ne:|||||
!f! F,3 F, F,2 |!f! D,2 E,)C, G,2 |!ff! C,3 D, E,2 | (F,2 A,2)"^dim." A,2 |"^," G,4 G,2 | %19
w: psal- li- te,|psal- * li- te,|psal- li- te|Do\- * mi-|no, qui|
 C3 B, A,G, | (F,2 D,2 E,2) | A,4 z2 |!mf! E,3 E, ^F,2 |!<(! ^G,2 ^F,2 G,2!<)! | %24
w: ha- bi- tat in|Si\- * *|on:|quo- ni- am|non de- re-|
!>(! A,2 A,2 D2!>)! |"^dim." (D2 ^CB,) C2 | D6 |!f! (D,2 E,)C,"^," G,2 |!ff! C,3 D, E,2 | %29
w: lin- quis quae-|ren\- * * tes|te;|psal\- * li- te,|psal- li- te,|
 (F,2 A,2)"^dim." A,2 |"^," G,4 G,2 | C3 B, A,G, | (F,4 C,2) | F,4 z2 |!mf! F,3 F, F,2 | %35
w: Do\- * mi-|no, qui|ha- bi- tat in|Si\- *|on:|quo- ni- am|
 D,2 D,2 A,,2 | E,2 E,2 E,2 | A,3 !courtesy!=G, F,E, | D,4 E,2 |"^," A,,4 A,,2 | F,3 E, D,^C, | %41
w: non est ob-|li- tus o-|ra- ti- o- nes|pau- pe-|rum, o-|ra- ti- o- nes|
 (D,6 | E,2 A,,2 C,2 |"^dim." E,4) E,2 | !fermata![A,,E,]6 |] %45
w: pau\-||* pe-|rum.|

